!!!OTL: AUF IHR BRUEDER LASST UNS WALLEN
!!!ARE: Europa, Mitteleuropa, Deutschland
!!!SCT: B0034
!!!YEM: Copyright 1995, estate of Helmut Schaffrath.
**kern
*ICvox
*Ivox
*M4/4
*k[]
*C:
{8.C
16E
=1
4.G
8G
4G
8.A
16B
=2
2c
4G}
{8.e
16d
=3
4.c
8B
4c
4A
=4
2G
4r}
{8.G
16G
=5
4.B
8c
4d
4e
=6
2f
4d}
{8.G
16G
=7
4.e
8c
4A
4B
=8
2c
4r}
{8.c
16e
=9
4d
4d
4d
4d
=10
4.d
8g
4g}
{8.c#
16c#
=11
4.d
8B
8.d
16c
8.B
16A
=12
2G
4r}
{8.d
16c
=13
4B
4G
4G
8.e
16d
=14
2c
4G}
{8.d
16c#
=15
4B
4G
4G
8.e
16d
=16
2c
4r}
{8.c
16B
=17
4.A
8A
4A
4c#
=18
4.d
8e
2f}
=19
{8.G
16G
8.A
16B
4c
4d
=20
2e
4r}
{8.e
16e
=21
4f
4e
4d
4c
=22
4.g
8f
2e
=23
4.e
8d
2c}
=24
{8.G
16G
8.G
16c
4e
4d
=25
2c
4r}
==
!!!AGN: politisch, national, Vaterlands - Lied
!!!ONB: ESAC (Essen Associative Code) Database: BOEHME
!!!AMT: simple quadruple
!!!AIN: vox
!!!EED: Helmut Schaffrath
!!!EEV: 1.0
*-
